Numix-GalliumOS/22/actions/stock_task-assigned.svg

<svg xmlns="http://www.w3.org/2000/svg" viewBox="0 0 22 22">
 <path d="m 17,4 c 1,0 1,0 1,1 l 0,14 c 0,1 0,1 -1,1 L 5,20 C 4,20 4,20 4,19 L 4,5 C 4,4 4,4 5,4" style="fill:#e6b07f;fill-opacity:1;stroke:none;fill-rule:evenodd"/>
 <path d="m 16 4 -10 0 l 0 14 10 0" style="fill:#fff;fill-opacity:1;stroke:none;fill-rule:nonzero"/>
 <path d="m 7 2 0 3.071 8 0 l 0 -3.071" style="fill:#aaa;fill-opacity:1;stroke:none;fill-rule:nonzero"/>
 <path d="m 11.25 14 l -1.063 1 l 4.813 0 l 0 -1 l -3.75 0 z" style="fill:#868686;fill-opacity:1;stroke:none;fill-rule:nonzero"/>
 <path d="m 9.125 16 l -1.063 1 l 6.938 0 l 0 -1 l -5.875 0 z" style="fill:#868686;fill-opacity:1;stroke:none;fill-rule:nonzero"/>
 <path d="m 13.375 10 l 1.063 1 l 0.563 0 l 0 -1 l -1.625 0 z" style="fill:#868686;fill-opacity:1;stroke:none;fill-rule:nonzero"/>
 <path d="m 13.375 12 l -1.063 1 l 2.688 0 l 0 -1 l -1.625 0 z" style="fill:#868686;fill-opacity:1;stroke:none;fill-rule:nonzero"/>
 <path d="M 9.125 6 L 10.1875 7 L 15 7 L 15 6 L 9.125 6 z " style="fill:#868686;fill-opacity:1;stroke:none;fill-rule:nonzero"/>
 <path d="m 11.25 8 l 1.063 1 l 2.688 0 l 0 -1 l -3.75 0 z" style="fill:#868686;fill-opacity:1;stroke:none;fill-rule:nonzero"/>
 <path d="m 13 11 -5 -5 0 3 -5 0 l 0 4 5 0 0 3 z" style="fill:#859900;fill-opacity:1"/>
</svg>

<?xml version="1.0" encoding="UTF-8" standalone="no"?>
<svg
   xmlns:dc="http://purl.org/dc/elements/1.1/"
   xmlns:cc="http://creativecommons.org/ns#"
   xmlns:rdf="http://www.w3.org/1999/02/22-rdf-syntax-ns#"
   xmlns:svg="http://www.w3.org/2000/svg"
   xmlns="http://www.w3.org/2000/svg"
   xmlns:sodipodi="http://sodipodi.sourceforge.net/DTD/sodipodi-0.dtd"
   xmlns:inkscape="http://www.inkscape.org/namespaces/inkscape"
   viewBox="0 0 22 22"
   id="svg2"
   version="1.1"
   inkscape:version="0.91 r13725"
   sodipodi:docname="stock_task-assigned.svg"
   width="22"
   height="22">
  <metadata
     id="metadata98">
    <rdf:RDF>
      <cc:Work
         rdf:about="">
        <dc:format>image/svg+xml</dc:format>
        <dc:type
           rdf:resource="http://purl.org/dc/dcmitype/StillImage" />
        <dc:title></dc:title>
      </cc:Work>
    </rdf:RDF>
  </metadata>
  <sodipodi:namedview
     pagecolor="#ffffff"
     bordercolor="#666666"
     borderopacity="1"
     objecttolerance="10"
     gridtolerance="10"
     guidetolerance="10"
     inkscape:pageopacity="0"
     inkscape:pageshadow="2"
     inkscape:window-width="1262"
     inkscape:window-height="982"
     id="namedview96"
     showgrid="true"
     inkscape:zoom="6.953217"
     inkscape:cx="-7.4767653"
     inkscape:cy="9.5349735"
     inkscape:window-x="8"
     inkscape:window-y="32"
     inkscape:window-maximized="0"
     inkscape:current-layer="svg2"
     inkscape:object-nodes="true"
     inkscape:snap-smooth-nodes="true">
    <inkscape:grid
       type="xygrid"
       id="grid4360" />
  </sodipodi:namedview>
  <defs
     id="defs4">
    <path
       id="SVGCleanerId_0"
       d="m 14,12 20,0 c 1.105,0 2,0.895 2,2 l 0,20 c 0,1.105 -0.895,2 -2,2 l -20,0 c -1.105,0 -2,-0.895 -2,-2 l 0,-20 c 0,-1.105 0.895,-2 2,-2 m 0,0"
       inkscape:connector-curvature="0" />
    <clipPath
       id="clipPath-543229327">
      <g
         transform="translate(0,-1004.3622)"
         id="g3857">
        <path
           inkscape:connector-curvature="0"
           d="m -24,13 c 0,1.105 -0.672,2 -1.5,2 -0.828,0 -1.5,-0.895 -1.5,-2 0,-1.105 0.672,-2 1.5,-2 0.828,0 1.5,0.895 1.5,2 z"
           transform="matrix(15.333333,0,0,11.5,414.99999,878.8622)"
           style="fill:#1890d0"
           id="path3859" />
      </g>
    </clipPath>
  </defs>
  <g
     id="g34"
     transform="translate(-29.246094,-20)" />
  <path
     sodipodi:nodetypes="cssssssc"
     id="path3893-7"
     style="fill:#e6b07f;fill-opacity:1;fill-rule:evenodd;stroke:none"
     d="m 17,4 c 1,0 1,0 1,1 l 0,14 c 0,1 0,1 -1,1 L 5,20 C 4,20 4,20 4,19 L 4,5 C 4,4 4,4 5,4"
     inkscape:connector-curvature="0" />
  <path
     sodipodi:nodetypes="cccc"
     id="path3895-9"
     style="fill:#ffffff;fill-opacity:1;fill-rule:nonzero;stroke:none"
     d="m 16,3.9999995 -10,0 L 6,18 16,18"
     inkscape:connector-curvature="0" />
  <path
     sodipodi:nodetypes="cccc"
     id="path3897-0"
     style="fill:#aaaaaa;fill-opacity:1;fill-rule:nonzero;stroke:none"
     d="m 7,2 0,3.0714283 8,0 L 15,2"
     inkscape:connector-curvature="0" />
  <path
     style="fill:#868686;fill-opacity:1;fill-rule:nonzero;stroke:none"
     d="M 11.25 14 L 10.1875 15 L 15 15 L 15 14 L 11.25 14 z "
     id="path3899-4" />
  <path
     style="fill:#868686;fill-opacity:1;fill-rule:nonzero;stroke:none"
     d="M 9.125 16 L 8.0625 17 L 15 17 L 15 16 L 9.125 16 z "
     id="path3901-9" />
  <g
     id="g34-5"
     transform="translate(0,-26)" />
  <path
     style="fill:#868686;fill-opacity:1;fill-rule:nonzero;stroke:none"
     d="M 13.375 10 L 14.4375 11 L 15 11 L 15 10 L 13.375 10 z "
     id="path3899-5-8" />
  <path
     style="fill:#868686;fill-opacity:1;fill-rule:nonzero;stroke:none"
     d="M 13.375 12 L 12.3125 13 L 15 13 L 15 12 L 13.375 12 z "
     id="path3901-7" />
  <path
     style="fill:#868686;fill-opacity:1;fill-rule:nonzero;stroke:none"
     d="M 9.125 6 L 10.1875 7 L 15 7 L 15 6 L 9.125 6 z "
     id="path3899-5-9" />
  <path
     style="fill:#868686;fill-opacity:1;fill-rule:nonzero;stroke:none"
     d="M 11.25 8 L 12.3125 9 L 15 9 L 15 8 L 11.25 8 z "
     id="path3901-7-2" />
  <path
     inkscape:connector-curvature="0"
     style="fill:#859900;fill-opacity:1"
     d="M 12.999999,10.999999 8,6 8,9 3,9 l 0,3.999999 5,0 0,3 z"
     id="path4" />
</svg>
